X: 366
T:Mille regretz
N: Derived from Jos2825-Mille_regretz.krn
C: Josquin des Prez
%%abc-version 2.0
%%abcx-abcm2ps-target-version 5.9.1 (29 Sep 2008)
%%abc-creator hum2abc beta
%%abcx-conversion-date 2019/02/12 16:15:54
%%abc-edited-by Jesse Rodin
%%abc-edited-by Jesse Rodin; Victoria Chang 2011/10/21
%%abcx-initial-encoding-date 2011/10/19/
%%humdrum-veritas 3637392609
%%humdrum-veritas-data 778418843
%%linebreak <none>
%%barnumbers 0
L: 1/4
M: 2/1
Q: 1/2=120
%%staves [1 2 3 4]
V: 1 clef=treble
V: 2 clef=treble-8
V: 3 clef=treble-8
V: 4 clef=bass
K: C
[V:1] E8 | 
[V:2] e8 | 
[V:3] z8 | 
[V:4] E,8 | 
[V:1] A4A4 | 
[V:2] c4f4 | 
[V:3] z8 | 
[V:4] F,4D,4 | 
[V:1] G6FE | 
[V:2] e8 | 
[V:3] E6F2 | 
[V:4] E,6D,C, | 
[V:1] D3CD4 | 
[V:2] z8 | 
[V:3] G4G4 | 
[V:4] B,,3A,,B,,4 | 
[V:1] C2c2c2c2 | 
[V:2] z2e2e2e2 | 
[V:3] A4z2A2 | 
[V:4] A,,8 | 
[V:1] B2B2A4 | 
[V:2] g4f4 | 
[V:3] G2E2F2D2 | 
[V:4] z8 | 
[V:1] z4c4 | 
[V:2] e4e4 | 
[V:3] A8 | 
[V:4] C8 | 
[V:1] B4A4- | 
[V:2] d4c4 | 
[V:3] z8 | 
[V:4] G,4A,4 | 
[V:1] A2GFG4 | 
[V:2] B8 | 
[V:3] z8 | 
[V:4] E,8 | 
[V:1] z4c4 | 
[V:2] e8 | 
[V:3] c8 | 
[V:4] z8 | 
[V:1] B4A4- | 
[V:2] d4c4 | 
[V:3] G4A4 | 
[V:4] z8 | 
[V:1] A2GFG4 | 
[V:2] B4e4 | 
[V:3] E8 | 
[V:4] z4C,4 | 
[V:1] A2A2A2A2 | 
[V:2] f6f2 | 
[V:3] z8 | 
[V:4] F,6F,2 | 
[V:1] G2G2F4 | 
[V:2] e2e2d4 | 
[V:3] z8 | 
[V:4] C,2C,2D,4 | 
[V:1] E8 | 
[V:2] c2c2c2c2 | 
[V:3] z2e2e2e2 | 
[V:4] A,,2A,2A,2A,2 | 
[V:1] z8 | 
[V:2] B2B2A4 | 
[V:3] e2e2d4 | 
[V:4] G,2G,2F,4 | 
[V:1] B8 | 
[V:2] B4g4 | 
[V:3] e4e4 | 
[V:4] E,4E,4 | 
[V:1] c4A4 | 
[V:2] e4e4 | 
[V:3] c4c4 | 
[V:4] A,4A,4 | 
[V:1] B4e4 | 
[V:2] e4z2e2 | 
[V:3] B8 | 
[V:4] E,8 | 
[V:1] d6c2 | 
[V:2] f6e2 | 
[V:3] z8 | 
[V:4] z8 | 
[V:1] B2A2^G4 | 
[V:2] d2c2B4 | 
[V:3] z4e4 | 
[V:4] z4E,4 | 
[V:1] A8 | 
[V:2] A8 | 
[V:3] d6c2 | 
[V:4] F,6E,2 | 
[V:1] z8 | 
[V:2] z8 | 
[V:3] B2A2^G4 | 
[V:4] D,2C,2B,,4 | 
[V:1] z4E4 | 
[V:2] z8 | 
[V:3] A8 | 
[V:4] A,,8 | 
[V:1] G4G4 | 
[V:2] e4g4- | 
[V:3] G8 | 
[V:4] z4E,4 | 
[V:1] D8 | 
[V:2] g4g4 | 
[V:3] z4B4 | 
[V:4] G,4G,4 | 
[V:1] z2d2d2d2 | 
[V:2] f8 | 
[V:3] d4d4 | 
[V:4] D,8 | 
[V:1] c8 | 
[V:2] z2a2a2a2 | 
[V:3] A8 | 
[V:4] z8 | 
[V:1] B4A4 | 
[V:2] g4f4 | 
[V:3] z4d4 | 
[V:4] z4D,4 | 
[V:1] z8 | 
[V:2] e8 | 
[V:3] B2c2B2c2- | 
[V:4] E,2A,,2E,2C,2- | 
[V:1] z4d4 | 
[V:2] z8 | 
[V:3] cBA4^G2 | 
[V:4] C,2D,2B,,4 | 
[V:1] c8 | 
[V:2] c8 | 
[V:3] A4z2A2 | 
[V:4] A,,8 | 
[V:1] B4A4 | 
[V:2] g4f4 | 
[V:3] G2E2F2D2 | 
[V:4] z8 | 
[V:1] z2A2A2A2 | 
[V:2] e2f2f2f2 | 
[V:3] A2A2c2c2 | 
[V:4] z2F,2F,2F,2 | 
[V:1] G4F4 | 
[V:2] e4d4 | 
[V:3] c4A3B | 
[V:4] C,4D,4 | 
[V:1] E2A2A2A2 | 
[V:2] c2f2f2f2 | 
[V:3] c2A2c2c2 | 
[V:4] A,,2F,2F,2F,2 | 
[V:1] G4F4 | 
[V:2] e4d4 | 
[V:3] c4A3B | 
[V:4] C,4D,4 | 
[V:1] E2E2G2E2 | 
[V:2] c2c2B2c2 | 
[V:3] c2A2G2A2 | 
[V:4] A,,2A,,2E,2A,,2 | 
[V:1] G4E3F | 
[V:2] B4c4 | 
[V:3] G4A4 | 
[V:4] E,4A,,4 | 
[V:1] G8 |]  
[V:2] B8 |]  
[V:3] G8 |]  
[V:4] E,8 |]  



